svgs/regular/laptop-code.svg

<svg xmlns="http://www.w3.org/2000/svg" viewBox="0 0 640 512"><!--! Font Awesome Pro 6.0.0-alpha3 by @fontawesome - https://fontawesome.com License - https://fontawesome.com/license (Commercial License) --><path d="M616 352H24C10.75 352 0 362.8 0 376v16C0 440.5 39.47 480 88 480h464c48.53 0 88-39.47 88-88v-16C640 362.8 629.3 352 616 352zM552 432H88c-19.31 0-35.48-13.77-39.2-32h542.4C587.5 418.2 571.3 432 552 432zM112 88c0-4.406 3.594-8 8-8h400c4.406 0 8 3.594 8 8V320H576V88C576 57.13 550.9 32 520 32H120C89.13 32 64 57.13 64 88V320h48V88zM365.9 262.2C369.8 266.1 374.9 268 380 268s10.23-1.938 14.14-5.844l48-48c7.812-7.812 7.812-20.5 0-28.31l-48-48c-7.812-7.812-20.47-7.812-28.28 0s-7.812 20.5 0 28.31l33.86 33.84l-33.86 33.84C358 241.7 358 254.4 365.9 262.2zM274.1 137.9c-7.812-7.812-20.47-7.812-28.28 0l-48 48c-7.812 7.812-7.812 20.5 0 28.31l48 48C249.8 266.1 254.9 268 260 268S270.2 266.1 274.1 262.2c7.812-7.812 7.812-20.5 0-28.31L240.3 200L274.1 166.2C281.1 158.4 281.1 145.7 274.1 137.9z"/></svg>

<svg xmlns="http://www.w3.org/2000/svg" viewBox="0 0 640 512"><!-- Font Awesome Pro 6.0.0-alpha2 by @fontawesome - https://fontawesome.com License - https://fontawesome.com/license (Commercial License) --><path d="M616 352H24C10.75 352 0 362.75 0 376V392C0 440.531 39.469 480 88 480H552C600.531 480 640 440.531 640 392V376C640 362.75 629.25 352 616 352ZM552 432H88C68.688 432 52.516 418.234 48.797 400H591.203C587.484 418.234 571.312 432 552 432ZM112 88C112 83.594 115.594 80 120 80H520C524.406 80 528 83.594 528 88V320H576V88C576 57.125 550.875 32 520 32H120C89.125 32 64 57.125 64 88V320H112V88ZM365.859 262.164C369.766 266.07 374.875 268.008 380 268.008S390.234 266.07 394.141 262.164L442.141 214.164C449.953 206.352 449.953 193.664 442.141 185.852L394.141 137.852C386.328 130.039 373.672 130.039 365.859 137.852S358.047 158.352 365.859 166.164L399.719 200.008L365.859 233.852C358.047 241.664 358.047 254.352 365.859 262.164ZM274.141 137.852C266.328 130.039 253.672 130.039 245.859 137.852L197.859 185.852C190.047 193.664 190.047 206.352 197.859 214.164L245.859 262.164C249.766 266.07 254.875 268.008 260 268.008S270.234 266.07 274.141 262.164C281.953 254.352 281.953 241.664 274.141 233.852L240.281 200.008L274.141 166.164C281.953 158.352 281.953 145.664 274.141 137.852Z"/></svg>
